public/images/project-ux-research-workingbrain/slide9.svg

<svg xmlns="http://www.w3.org/2000/svg" xmlns:xlink="http://www.w3.org/1999/xlink" width="1739" zoomAndPan="magnify" viewBox="0 0 1304.25 660.749985" height="881" preserveAspectRatio="xMidYMid meet" version="1.2"><defs><clipPath id="dec38db4ec"><path d="M 0 0.0664062 L 1303.5 0.0664062 L 1303.5 660.433594 L 0 660.433594 Z M 0 0.0664062 "/></clipPath><clipPath id="b666c85821"><path d="M 927 0.0664062 L 1303.5 0.0664062 L 1303.5 224 L 927 224 Z M 927 0.0664062 "/></clipPath><clipPath id="753b111e5f"><path d="M 0 528 L 276 528 L 276 660.433594 L 0 660.433594 Z M 0 528 "/></clipPath><clipPath id="11fb425cfc"><path d="M -337.664062 535.375 L 211.144531 391.234375 L 337.960938 874.070312 L -210.851562 1018.210938 Z M -337.664062 535.375 "/></clipPath><clipPath id="5eb872900c"><path d="M -337.664062 535.375 L 211.144531 391.234375 L 337.960938 874.070312 L -210.851562 1018.210938 Z M -337.664062 535.375 "/></clipPath><clipPath id="7ff19916f8"><path d="M 0 0.0664062 L 434 0.0664062 L 434 131 L 0 131 Z M 0 0.0664062 "/></clipPath><clipPath id="8c81122d44"><path d="M -179.609375 -274.355469 L 369.203125 -418.5 L 496.015625 64.335938 L -52.792969 208.480469 Z M -179.609375 -274.355469 "/></clipPath><clipPath id="76c7963846"><path d="M -179.609375 -274.355469 L 369.203125 -418.5 L 496.015625 64.335938 L -52.792969 208.480469 Z M -179.609375 -274.355469 "/></clipPath><clipPath id="0d07b2ae8d"><path d="M 981 487 L 1303.5 487 L 1303.5 660.433594 L 981 660.433594 Z M 981 487 "/></clipPath><clipPath id="30c9748857"><path d="M 1009.066406 413.238281 L 1569.273438 503.453125 L 1489.90625 996.316406 L 929.699219 906.101562 Z M 1009.066406 413.238281 "/></clipPath><clipPath id="34a07830f3"><path d="M 1009.066406 413.238281 L 1569.273438 503.453125 L 1489.90625 996.316406 L 929.699219 906.101562 Z M 1009.066406 413.238281 "/></clipPath></defs><g id="c897d24736"><g clip-rule="nonzero" clip-path="url(#dec38db4ec)"><path style=" stroke:none;fill-rule:nonzero;fill:#ffffff;fill-opacity:1;" d="M 0 0.0664062 L 1303.5 0.0664062 L 1303.5 660.433594 L 0 660.433594 Z M 0 0.0664062 "/><path style=" stroke:none;fill-rule:nonzero;fill:#ffffff;fill-opacity:1;" d="M 0 0.0664062 L 1303.5 0.0664062 L 1303.5 660.433594 L 0 660.433594 Z M 0 0.0664062 "/></g><g clip-rule="nonzero" clip-path="url(#b666c85821)"><path style=" stroke:none;fill-rule:evenodd;fill:#e0eaff;fill-opacity:1;" d="M 1243.519531 -270.835938 C 1222.875 -266.632812 1209.960938 -262.417969 1197.066406 -250.40625 C 1155.761719 -213.75 1152.320312 -179.5 1120.5 -129.019531 C 1080.058594 -63.519531 1061.136719 -55.707031 1008.660156 -10.027344 C 1001.773438 -4.625 996.609375 0.792969 990.597656 6.199219 C 941.5625 48.867188 897.679688 131.191406 952.738281 184.074219 C 963.925781 194.289062 975.964844 202.707031 992.316406 211.109375 C 1007.796875 218.921875 1022.429688 227.933594 1044.796875 221.933594 C 1060.289062 217.730469 1074.90625 207.503906 1088.679688 200.300781 C 1103.3125 192.492188 1117.929688 184.074219 1135.992188 180.464844 C 1153.195312 176.859375 1178.15625 175.0625 1196.214844 178.667969 C 1233.214844 185.882812 1285.691406 232.753906 1351.082031 201.503906 C 1441.417969 158.238281 1400.976562 88.523438 1431.949219 17.007812 C 1443.136719 -9.433594 1468.085938 -49.695312 1452.59375 -86.960938 C 1443.125 -110.996094 1427.644531 -118.210938 1418.179688 -126.628906 C 1413.011719 -131.4375 1423.34375 -129.628906 1406.988281 -138.046875 C 1400.101562 -141.652344 1380.320312 -160.878906 1373.433594 -171.703125 C 1369.128906 -178.308594 1366.546875 -185.523438 1363.105469 -194.535156 C 1351.054688 -229.394531 1330.410156 -244.417969 1298.578125 -261.835938 C 1280.515625 -271.457031 1266.742188 -275.0625 1243.519531 -270.847656 Z M 1243.519531 -270.835938 "/></g><g clip-rule="nonzero" clip-path="url(#753b111e5f)"><g clip-rule="nonzero" clip-path="url(#11fb425cfc)"><g clip-rule="nonzero" clip-path="url(#5eb872900c)"><path style=" stroke:none;fill-rule:nonzero;fill:#f0cdcd;fill-opacity:1;" d="M -241.953125 596.496094 C -249.8125 608.21875 -255.777344 621.992188 -259.347656 638.164062 C -282.402344 742.519531 -236.945312 918.808594 -112.964844 937.058594 C -60.265625 944.8125 -0.4375 938.101562 52.480469 934.070312 C 131.792969 928.023438 190.847656 900.132812 228.761719 826.515625 C 258.839844 768.117188 286.230469 693.710938 271.441406 627.238281 C 263.417969 591.164062 240.054688 557.066406 205.722656 543.394531 C 177.441406 532.136719 145.8125 535.613281 115.398438 536.765625 C 11.613281 540.695312 -171.765625 491.828125 -241.953125 596.496094 "/></g></g></g><g clip-rule="nonzero" clip-path="url(#7ff19916f8)"><g clip-rule="nonzero" clip-path="url(#8c81122d44)"><g clip-rule="nonzero" clip-path="url(#76c7963846)"><path style=" stroke:none;fill-rule:nonzero;fill:#f0e8cd;fill-opacity:1;" d="M -83.894531 -213.234375 C -91.753906 -201.515625 -97.71875 -187.738281 -101.292969 -171.566406 C -124.34375 -67.214844 -78.890625 109.074219 45.09375 127.324219 C 97.789062 135.082031 157.617188 128.371094 210.539062 124.335938 C 289.851562 118.292969 348.90625 90.398438 386.820312 16.785156 C 416.894531 -41.613281 444.285156 -116.019531 429.496094 -182.492188 C 421.472656 -218.566406 398.113281 -252.664062 363.78125 -266.335938 C 335.5 -277.597656 303.871094 -274.121094 273.457031 -272.96875 C 169.671875 -269.039062 -13.710938 -317.90625 -83.894531 -213.234375 "/></g></g></g><g clip-rule="nonzero" clip-path="url(#0d07b2ae8d)"><g clip-rule="nonzero" clip-path="url(#30c9748857)"><g clip-rule="nonzero" clip-path="url(#34a07830f3)"><path style=" stroke:none;fill-rule:nonzero;fill:#eaf5e6;fill-opacity:1;" d="M 1071.871094 507.859375 C 1059.941406 515.398438 1048.910156 525.582031 1039.101562 538.925781 C 975.800781 625.03125 946.050781 804.640625 1052.050781 871.488281 C 1097.105469 899.902344 1154.53125 917.96875 1204.558594 935.691406 C 1279.539062 962.25 1344.828125 960.632812 1409.28125 908.648438 C 1460.414062 867.410156 1515.566406 810.449219 1528.933594 743.675781 C 1536.191406 707.4375 1528.621094 666.804688 1502.753906 640.410156 C 1481.445312 618.671875 1451.117188 609.054688 1422.835938 597.804688 C 1326.335938 559.410156 1178.398438 440.53125 1071.871094 507.859375 "/></g></g></g><g style="fill:#424141;fill-opacity:1;"><g transform="translate(457.497057, 365.654535)"><path style="stroke:none" d="M 19.375 -64.453125 L 19.375 0 L 4.6875 0 L 4.6875 -64.453125 Z M 19.375 -64.453125 "/></g></g><g style="fill:#424141;fill-opacity:1;"><g transform="translate(481.557743, 365.654535)"><path style="stroke:none" d="M 19.375 -40 L 19.375 0 L 4.6875 0 L 4.6875 -64.453125 L 19.375 -64.453125 L 45 -24.453125 L 45.15625 -24.453125 L 45.15625 -64.453125 L 59.84375 -64.453125 L 59.84375 0 L 45.15625 0 L 19.53125 -40 Z M 19.375 -40 "/></g></g><g style="fill:#424141;fill-opacity:1;"><g transform="translate(546.084139, 365.654535)"><path style="stroke:none" d="M 28.4375 -65.625 C 31.925781 -65.625 35.335938 -65.113281 38.671875 -64.09375 C 42.003906 -63.082031 44.476562 -62.082031 46.09375 -61.09375 L 48.4375 -59.53125 L 42.5 -47.8125 C 42.03125 -48.125 41.378906 -48.523438 40.546875 -49.015625 C 39.710938 -49.515625 38.148438 -50.179688 35.859375 -51.015625 C 33.566406 -51.847656 31.429688 -52.265625 29.453125 -52.265625 C 27.003906 -52.265625 25.113281 -51.742188 23.78125 -50.703125 C 22.457031 -49.660156 21.796875 -48.253906 21.796875 -46.484375 C 21.796875 -45.597656 22.109375 -44.773438 22.734375 -44.015625 C 23.359375 -43.265625 24.425781 -42.457031 25.9375 -41.59375 C 27.445312 -40.738281 28.773438 -40.050781 29.921875 -39.53125 C 31.066406 -39.007812 32.835938 -38.226562 35.234375 -37.1875 C 39.398438 -35.414062 42.953125 -33.003906 45.890625 -29.953125 C 48.835938 -26.910156 50.3125 -23.460938 50.3125 -19.609375 C 50.3125 -15.910156 49.644531 -12.679688 48.3125 -9.921875 C 46.988281 -7.160156 45.164062 -5 42.84375 -3.4375 C 40.53125 -1.875 37.96875 -0.71875 35.15625 0.03125 C 32.34375 0.789062 29.296875 1.171875 26.015625 1.171875 C 23.203125 1.171875 20.441406 0.882812 17.734375 0.3125 C 15.023438 -0.257812 12.757812 -0.972656 10.9375 -1.828125 C 9.113281 -2.691406 7.472656 -3.539062 6.015625 -4.375 C 4.554688 -5.207031 3.488281 -5.910156 2.8125 -6.484375 L 1.796875 -7.34375 L 9.140625 -19.6875 C 9.765625 -19.164062 10.625 -18.5 11.71875 -17.6875 C 12.8125 -16.882812 14.75 -15.804688 17.53125 -14.453125 C 20.320312 -13.097656 22.785156 -12.421875 24.921875 -12.421875 C 31.117188 -12.421875 34.21875 -14.53125 34.21875 -18.75 C 34.21875 -19.632812 33.992188 -20.453125 33.546875 -21.203125 C 33.109375 -21.960938 32.328125 -22.71875 31.203125 -23.46875 C 30.085938 -24.226562 29.097656 -24.828125 28.234375 -25.265625 C 27.378906 -25.710938 25.972656 -26.390625 24.015625 -27.296875 C 22.066406 -28.210938 20.625 -28.90625 19.6875 -29.375 C 15.78125 -31.300781 12.757812 -33.707031 10.625 -36.59375 C 8.488281 -39.488281 7.421875 -42.601562 7.421875 -45.9375 C 7.421875 -51.71875 9.554688 -56.441406 13.828125 -60.109375 C 18.097656 -63.785156 22.96875 -65.625 28.4375 -65.625 Z M 28.4375 -65.625 "/></g></g><g style="fill:#424141;fill-opacity:1;"><g transform="translate(598.58019, 365.654535)"><path style="stroke:none" d="M 19.375 -64.453125 L 19.375 0 L 4.6875 0 L 4.6875 -64.453125 Z M 19.375 -64.453125 "/></g></g><g style="fill:#424141;fill-opacity:1;"><g transform="translate(622.640877, 365.654535)"><path style="stroke:none" d="M 62.96875 -36.09375 L 62.96875 -22.109375 C 61.300781 -14.453125 57.65625 -8.65625 52.03125 -4.71875 C 46.40625 -0.789062 40.128906 1.171875 33.203125 1.171875 C 24.503906 1.171875 17.09375 -2.082031 10.96875 -8.59375 C 4.851562 -15.101562 1.796875 -22.96875 1.796875 -32.1875 C 1.796875 -41.5625 4.789062 -49.476562 10.78125 -55.9375 C 16.769531 -62.394531 24.242188 -65.625 33.203125 -65.625 C 43.671875 -65.625 51.953125 -61.953125 58.046875 -54.609375 L 48.4375 -44.0625 C 45 -49.582031 40.207031 -52.34375 34.0625 -52.34375 C 29.53125 -52.34375 25.660156 -50.375 22.453125 -46.4375 C 19.253906 -42.507812 17.65625 -37.757812 17.65625 -32.1875 C 17.65625 -26.71875 19.253906 -22.039062 22.453125 -18.15625 C 25.660156 -14.28125 29.53125 -12.34375 34.0625 -12.34375 C 37.8125 -12.34375 41.078125 -13.472656 43.859375 -15.734375 C 46.648438 -18.003906 48.046875 -21.015625 48.046875 -24.765625 L 33.203125 -24.765625 L 33.203125 -36.09375 Z M 62.96875 -36.09375 "/></g></g><g style="fill:#424141;fill-opacity:1;"><g transform="translate(687.401615, 365.654535)"><path style="stroke:none" d="M 19.375 -25.859375 L 19.375 0 L 4.6875 0 L 4.6875 -64.453125 L 19.375 -64.453125 L 19.375 -38.75 L 40.15625 -38.75 L 40.15625 -64.453125 L 54.84375 -64.453125 L 54.84375 0 L 40.15625 0 L 40.15625 -25.859375 Z M 19.375 -25.859375 "/></g></g><g style="fill:#424141;fill-opacity:1;"><g transform="translate(746.928387, 365.654535)"><path style="stroke:none" d="M 0.625 -51.5625 L 0.625 -64.453125 L 45.9375 -64.453125 L 45.9375 -51.5625 L 30.625 -51.5625 L 30.625 0 L 15.9375 0 L 15.9375 -51.5625 Z M 0.625 -51.5625 "/></g></g><g style="fill:#424141;fill-opacity:1;"><g transform="translate(793.487396, 365.654535)"><path style="stroke:none" d="M 28.4375 -65.625 C 31.925781 -65.625 35.335938 -65.113281 38.671875 -64.09375 C 42.003906 -63.082031 44.476562 -62.082031 46.09375 -61.09375 L 48.4375 -59.53125 L 42.5 -47.8125 C 42.03125 -48.125 41.378906 -48.523438 40.546875 -49.015625 C 39.710938 -49.515625 38.148438 -50.179688 35.859375 -51.015625 C 33.566406 -51.847656 31.429688 -52.265625 29.453125 -52.265625 C 27.003906 -52.265625 25.113281 -51.742188 23.78125 -50.703125 C 22.457031 -49.660156 21.796875 -48.253906 21.796875 -46.484375 C 21.796875 -45.597656 22.109375 -44.773438 22.734375 -44.015625 C 23.359375 -43.265625 24.425781 -42.457031 25.9375 -41.59375 C 27.445312 -40.738281 28.773438 -40.050781 29.921875 -39.53125 C 31.066406 -39.007812 32.835938 -38.226562 35.234375 -37.1875 C 39.398438 -35.414062 42.953125 -33.003906 45.890625 -29.953125 C 48.835938 -26.910156 50.3125 -23.460938 50.3125 -19.609375 C 50.3125 -15.910156 49.644531 -12.679688 48.3125 -9.921875 C 46.988281 -7.160156 45.164062 -5 42.84375 -3.4375 C 40.53125 -1.875 37.96875 -0.71875 35.15625 0.03125 C 32.34375 0.789062 29.296875 1.171875 26.015625 1.171875 C 23.203125 1.171875 20.441406 0.882812 17.734375 0.3125 C 15.023438 -0.257812 12.757812 -0.972656 10.9375 -1.828125 C 9.113281 -2.691406 7.472656 -3.539062 6.015625 -4.375 C 4.554688 -5.207031 3.488281 -5.910156 2.8125 -6.484375 L 1.796875 -7.34375 L 9.140625 -19.6875 C 9.765625 -19.164062 10.625 -18.5 11.71875 -17.6875 C 12.8125 -16.882812 14.75 -15.804688 17.53125 -14.453125 C 20.320312 -13.097656 22.785156 -12.421875 24.921875 -12.421875 C 31.117188 -12.421875 34.21875 -14.53125 34.21875 -18.75 C 34.21875 -19.632812 33.992188 -20.453125 33.546875 -21.203125 C 33.109375 -21.960938 32.328125 -22.71875 31.203125 -23.46875 C 30.085938 -24.226562 29.097656 -24.828125 28.234375 -25.265625 C 27.378906 -25.710938 25.972656 -26.390625 24.015625 -27.296875 C 22.066406 -28.210938 20.625 -28.90625 19.6875 -29.375 C 15.78125 -31.300781 12.757812 -33.707031 10.625 -36.59375 C 8.488281 -39.488281 7.421875 -42.601562 7.421875 -45.9375 C 7.421875 -51.71875 9.554688 -56.441406 13.828125 -60.109375 C 18.097656 -63.785156 22.96875 -65.625 28.4375 -65.625 Z M 28.4375 -65.625 "/></g></g></g></svg>

<svg xmlns="http://www.w3.org/2000/svg" width="1739" viewBox="0 0 1304.25 660.75" height="881" version="1.2"><defs><clipPath id="f"><path d="M0 .066h434V131H0zm0 0"/></clipPath><clipPath id="a"><path d="M0 .066h1303.5v660.368H0zm0 0"/></clipPath><clipPath id="c"><path d="M0 528h276v132.434H0zm0 0"/></clipPath><clipPath id="d"><path d="m-337.664 535.375 548.809-144.14L337.96 874.07l-548.813 144.14zm0 0"/></clipPath><clipPath id="e"><path d="m-337.664 535.375 548.809-144.14L337.96 874.07l-548.813 144.14zm0 0"/></clipPath><clipPath id="b"><path d="M927 .066h376.5V224H927zm0 0"/></clipPath><clipPath id="g"><path d="M-179.61-274.355 369.204-418.5 496.016 64.336-52.793 208.48zm0 0"/></clipPath><clipPath id="h"><path d="M-179.61-274.355 369.204-418.5 496.016 64.336-52.793 208.48zm0 0"/></clipPath><clipPath id="i"><path d="M981 487h322.5v173.434H981zm0 0"/></clipPath><clipPath id="j"><path d="m1009.066 413.238 560.207 90.215-79.367 492.863L929.7 906.102zm0 0"/></clipPath><clipPath id="k"><path d="m1009.066 413.238 560.207 90.215-79.367 492.863L929.7 906.102zm0 0"/></clipPath></defs><g clip-path="url(#a)"><path style="stroke:none;fill-rule:nonzero;fill:#fff;fill-opacity:1" d="M0 .066h1303.5v660.368H0zm0 0"/><path style="stroke:none;fill-rule:nonzero;fill:#fff;fill-opacity:1" d="M0 .066h1303.5v660.368H0zm0 0"/></g><g clip-path="url(#b)"><path style="stroke:none;fill-rule:evenodd;fill:#e0eaff;fill-opacity:1" d="M1243.52-270.836c-20.645 4.203-33.56 8.418-46.454 20.43-41.304 36.656-44.746 70.906-76.566 121.386-40.441 65.5-59.363 73.313-111.84 118.993-6.887 5.402-12.05 10.82-18.062 16.226-49.035 42.668-92.918 124.992-37.86 177.875 11.188 10.215 23.227 18.633 39.578 27.035 15.48 7.813 30.114 16.825 52.48 10.825 15.493-4.204 30.11-14.43 43.884-21.633 14.632-7.809 29.25-16.227 47.312-19.836 17.203-3.606 42.164-5.403 60.223-1.797 37 7.215 89.476 54.086 154.867 22.836 90.336-43.266 49.895-112.98 80.867-184.496 11.188-26.442 36.137-66.703 20.645-103.969-9.469-24.035-24.95-31.25-34.414-39.668-5.168-4.808 5.164-3-11.192-11.418-6.886-3.605-26.668-22.832-33.554-33.656-4.305-6.606-6.887-13.82-10.329-22.832-12.05-34.86-32.695-49.883-64.527-67.3-18.062-9.622-31.836-13.228-55.058-9.013zm0 0"/></g><g clip-path="url(#c)"><g clip-path="url(#d)"><g clip-path="url(#e)"><path style="stroke:none;fill-rule:nonzero;fill:#f0cdcd;fill-opacity:1" d="M-241.953 596.496c-7.86 11.723-13.824 25.496-17.395 41.668-23.054 104.356 22.403 280.645 146.383 298.895 52.7 7.754 112.528 1.043 165.445-2.989 79.313-6.047 138.368-33.937 176.282-107.554 30.078-58.399 57.468-132.805 42.68-199.278-8.024-36.074-31.387-70.172-65.72-83.843-28.28-11.258-59.91-7.782-90.324-6.63-103.785 3.93-287.164-44.937-357.351 59.731"/></g></g></g><g clip-path="url(#f)"><g clip-path="url(#g)"><g clip-path="url(#h)"><path style="stroke:none;fill-rule:nonzero;fill:#f0e8cd;fill-opacity:1" d="M-83.895-213.234c-7.859 11.718-13.824 25.496-17.398 41.668-23.05 104.351 22.402 280.64 146.387 298.89 52.695 7.758 112.523 1.047 165.445-2.988 79.313-6.043 138.367-33.938 176.281-107.55 30.075-58.4 57.465-132.806 42.676-199.278-8.023-36.074-31.383-70.172-65.715-83.844-28.281-11.262-59.91-7.785-90.324-6.633-103.785 3.93-287.168-44.937-357.352 59.735"/></g></g></g><g clip-path="url(#i)"><g clip-path="url(#j)"><g clip-path="url(#k)"><path style="stroke:none;fill-rule:nonzero;fill:#eaf5e6;fill-opacity:1" d="M1071.871 507.86c-11.93 7.538-22.96 17.722-32.77 31.066-63.3 86.105-93.05 265.715 12.95 332.562 45.054 28.414 102.48 46.48 152.508 64.203 74.98 26.559 140.27 24.942 204.722-27.043 51.133-41.238 106.285-98.199 119.653-164.972 7.257-36.239-.313-76.871-26.18-103.266-21.309-21.738-51.637-31.355-79.918-42.605-96.5-38.395-244.438-157.274-350.965-89.946"/></g></g></g><g style="fill:#424141;fill-opacity:1"><path style="stroke:none" d="M19.375-64.453V0H4.687v-64.453zm0 0" transform="translate(457.497 365.655)"/></g><g style="fill:#424141;fill-opacity:1"><path style="stroke:none" d="M19.375-40V0H4.687v-64.453h14.688l25.625 40h.156v-40h14.688V0H45.156L19.531-40zm0 0" transform="translate(481.558 365.655)"/></g><g style="fill:#424141;fill-opacity:1"><path style="stroke:none" d="M28.438-65.625c3.488 0 6.898.512 10.234 1.531 3.332 1.012 5.805 2.012 7.422 3l2.343 1.563L42.5-47.813a45.916 45.916 0 0 0-1.953-1.203c-.836-.5-2.399-1.164-4.688-2-2.293-.832-4.43-1.25-6.406-1.25-2.45 0-4.34.524-5.672 1.563-1.324 1.043-1.984 2.45-1.984 4.219 0 .886.312 1.71.937 2.468.625.75 1.692 1.559 3.203 2.422 1.508.856 2.836 1.543 3.985 2.063 1.144.523 2.914 1.304 5.312 2.343 4.164 1.774 7.72 4.184 10.657 7.235 2.945 3.043 4.422 6.492 4.422 10.344 0 3.699-.668 6.93-2 9.687C46.987-7.16 45.163-5 42.843-3.437 40.532-1.875 37.97-.72 35.157.03c-2.812.758-5.86 1.14-9.14 1.14-2.813 0-5.575-.288-8.282-.859-2.71-.57-4.976-1.285-6.797-2.14a70.74 70.74 0 0 1-4.921-2.547c-1.461-.832-2.528-1.535-3.204-2.11l-1.015-.859L9.14-19.687a59.287 59.287 0 0 0 2.578 2c1.094.804 3.031 1.882 5.812 3.234 2.79 1.355 5.254 2.031 7.39 2.031 6.196 0 9.298-2.11 9.298-6.328 0-.883-.227-1.703-.672-2.453-.438-.758-1.219-1.516-2.344-2.266-1.117-.758-2.105-1.36-2.969-1.797-.855-.445-2.261-1.125-4.218-2.03-1.95-.915-3.391-1.61-4.328-2.079-3.907-1.926-6.93-4.332-9.063-7.219-2.137-2.894-3.203-6.008-3.203-9.343 0-5.782 2.133-10.504 6.406-14.172 4.27-3.676 9.14-5.516 14.61-5.516zm0 0" transform="translate(546.084 365.655)"/></g><g style="fill:#424141;fill-opacity:1"><path style="stroke:none" d="M19.375-64.453V0H4.687v-64.453zm0 0" transform="translate(598.58 365.655)"/></g><g style="fill:#424141;fill-opacity:1"><path style="stroke:none" d="M62.969-36.094v13.985C61.3-14.453 57.656-8.656 52.03-4.72c-5.625 3.93-11.902 5.89-18.828 5.89-8.7 0-16.11-3.253-22.234-9.765-6.117-6.508-9.172-14.375-9.172-23.593 0-9.376 2.992-17.29 8.984-23.75 5.989-6.458 13.461-9.688 22.422-9.688 10.469 0 18.75 3.672 24.844 11.016l-9.61 10.547c-3.437-5.52-8.23-8.282-14.374-8.282-4.532 0-8.403 1.969-11.61 5.907-3.2 3.93-4.797 8.68-4.797 14.25 0 5.468 1.598 10.148 4.797 14.03 3.207 3.876 7.078 5.813 11.61 5.813 3.75 0 7.015-1.129 9.796-3.39 2.79-2.27 4.188-5.282 4.188-9.032H33.203v-11.328zm0 0" transform="translate(622.64 365.655)"/></g><g style="fill:#424141;fill-opacity:1"><path style="stroke:none" d="M19.375-25.86V0H4.687v-64.453h14.688v25.703h20.781v-25.703h14.688V0H40.156v-25.86zm0 0" transform="translate(687.402 365.655)"/></g><g style="fill:#424141;fill-opacity:1"><path style="stroke:none" d="M.625-51.563v-12.89h45.313v12.89H30.624V0H15.937v-51.563zm0 0" transform="translate(746.928 365.655)"/></g><g style="fill:#424141;fill-opacity:1"><path style="stroke:none" d="M28.438-65.625c3.488 0 6.898.512 10.234 1.531 3.332 1.012 5.805 2.012 7.422 3l2.343 1.563L42.5-47.813a45.916 45.916 0 0 0-1.953-1.203c-.836-.5-2.399-1.164-4.688-2-2.293-.832-4.43-1.25-6.406-1.25-2.45 0-4.34.524-5.672 1.563-1.324 1.043-1.984 2.45-1.984 4.219 0 .886.312 1.71.937 2.468.625.75 1.692 1.559 3.203 2.422 1.508.856 2.836 1.543 3.985 2.063 1.144.523 2.914 1.304 5.312 2.343 4.164 1.774 7.72 4.184 10.657 7.235 2.945 3.043 4.422 6.492 4.422 10.344 0 3.699-.668 6.93-2 9.687C46.987-7.16 45.163-5 42.843-3.437 40.532-1.875 37.97-.72 35.157.03c-2.812.758-5.86 1.14-9.14 1.14-2.813 0-5.575-.288-8.282-.859-2.71-.57-4.976-1.285-6.797-2.14a70.74 70.74 0 0 1-4.921-2.547c-1.461-.832-2.528-1.535-3.204-2.11l-1.015-.859L9.14-19.687a59.287 59.287 0 0 0 2.578 2c1.094.804 3.031 1.882 5.812 3.234 2.79 1.355 5.254 2.031 7.39 2.031 6.196 0 9.298-2.11 9.298-6.328 0-.883-.227-1.703-.672-2.453-.438-.758-1.219-1.516-2.344-2.266-1.117-.758-2.105-1.36-2.969-1.797-.855-.445-2.261-1.125-4.218-2.03-1.95-.915-3.391-1.61-4.328-2.079-3.907-1.926-6.93-4.332-9.063-7.219-2.137-2.894-3.203-6.008-3.203-9.343 0-5.782 2.133-10.504 6.406-14.172 4.27-3.676 9.14-5.516 14.61-5.516zm0 0" transform="translate(793.487 365.655)"/></g></svg>
